X: 1713
T: Anyone Should Go To Boston
R: reel
M: 4/4
K: Ddorian
|:D2AG AB/A/ GA|c~G3 AGEA|D2AG AB/A/ GA|BcGA EDCE|
D2AG AB/A/ GA|c~G3 AGED|e~f3 edcA|1 BGEC EDCE:|2 BGEC E~D3||
|:f3d ~e3d|cGGc AGED|~f3f edcd|eaag edde|
fAdf ~e3d|c~G3 AGEA|D2AG AB/A/ GA|1 ce/c/ GE E~D3:|2 BcGA EDCE||

